lib/assets/qr-code.svg

<?xml version="1.0" encoding="utf-8"?>
<!-- Generator: Adobe Illustrator 22.0.0, SVG Export Plug-In . SVG Version: 6.00 Build 0)  -->
<svg version="1.1" id="Layer_1" xmlns="http://www.w3.org/2000/svg" xmlns:xlink="http://www.w3.org/1999/xlink" x="0px" y="0px"
	 viewBox="0 0 512 512" style="enable-background:new 0 0 512 512;" xml:space="preserve">
<style type="text/css">
	.st0{fill:#FFFFFF;}
</style>
<path class="st0" d="M0,96V20C0,9,9,0,20,0h76c11,0,20,9,20,20s-9,20-20,20H40v56c0,11-9,20-20,20S0,107,0,96z M492,0h-76
	c-11,0-20,9-20,20s9,20,20,20h56v56c0,11,9,20,20,20s20-9,20-20V20C512,9,503,0,492,0z M96,472H40v-56c0-11-9-20-20-20s-20,9-20,20
	v76c0,11,9,20,20,20h76c11,0,20-9,20-20S107,472,96,472z M492,396c-11,0-20,9-20,20v56h-56c-11,0-20,9-20,20s9,20,20,20h76
	c11,0,20-9,20-20v-76C512,405,503,396,492,396z M238.5,98.5v120c0,11-9,20-20,20h-120c-11,0-20-9-20-20v-120c0-11,9-20,20-20h120
	C229.5,78.5,238.5,87.5,238.5,98.5z M198.5,118.5h-80v80h80V118.5z M423.5,238.5h-120c-11,0-20-9-20-20v-120c0-11,9-20,20-20h120
	c11,0,20,9,20,20v120C443.5,229.5,434.5,238.5,423.5,238.5z M403.5,118.5h-80v80h80V118.5z M238.5,303.5v120c0,11-9,20-20,20h-120
	c-11,0-20-9-20-20v-120c0-11,9-20,20-20h120C229.5,283.5,238.5,292.5,238.5,303.5z M198.5,323.5h-80v80h80V323.5z M397.8,417.8
	h-68.5c-11,0-20-9-20-20v-68.5c0-11,9-20,20-20h68.5c11,0,20,9,20,20v68.5C417.8,408.8,408.8,417.8,397.8,417.8z M377.8,349.3h-28.5
	v28.5h28.5V349.3z"/>
</svg>

<svg width="512" height="512" viewBox="0 0 512 512" fill="none" xmlns="http://www.w3.org/2000/svg">
<path d="M0 96V20C0 9 9 0 20 0H96C107 0 116 9 116 20C116 31 107 40 96 40H40V96C40 107 31 116 20 116C9 116 0 107 0 96ZM492 0H416C405 0 396 9 396 20C396 31 405 40 416 40H472V96C472 107 481 116 492 116C503 116 512 107 512 96V20C512 9 503 0 492 0ZM96 472H40V416C40 405 31 396 20 396C9 396 0 405 0 416V492C0 503 9 512 20 512H96C107 512 116 503 116 492C116 481 107 472 96 472ZM492 396C481 396 472 405 472 416V472H416C405 472 396 481 396 492C396 503 405 512 416 512H492C503 512 512 503 512 492V416C512 405 503 396 492 396ZM238.5 98.5V218.5C238.5 229.5 229.5 238.5 218.5 238.5H98.5C87.5 238.5 78.5 229.5 78.5 218.5V98.5C78.5 87.5 87.5 78.5 98.5 78.5H218.5C229.5 78.5 238.5 87.5 238.5 98.5ZM198.5 118.5H118.5V198.5H198.5V118.5ZM423.5 238.5H303.5C292.5 238.5 283.5 229.5 283.5 218.5V98.5C283.5 87.5 292.5 78.5 303.5 78.5H423.5C434.5 78.5 443.5 87.5 443.5 98.5V218.5C443.5 229.5 434.5 238.5 423.5 238.5ZM403.5 118.5H323.5V198.5H403.5V118.5ZM238.5 303.5V423.5C238.5 434.5 229.5 443.5 218.5 443.5H98.5C87.5 443.5 78.5 434.5 78.5 423.5V303.5C78.5 292.5 87.5 283.5 98.5 283.5H218.5C229.5 283.5 238.5 292.5 238.5 303.5ZM198.5 323.5H118.5V403.5H198.5V323.5ZM397.8 417.8H329.3C318.3 417.8 309.3 408.8 309.3 397.8V329.3C309.3 318.3 318.3 309.3 329.3 309.3H397.8C408.8 309.3 417.8 318.3 417.8 329.3V397.8C417.8 408.8 408.8 417.8 397.8 417.8ZM377.8 349.3H349.3V377.8H377.8V349.3Z" fill="white"/>
</svg>
